!!!COM: Anon.
!!!OTL: O que tens, o/ Juliana
!!!OTL: Romanceiro Folclorico do Brasil
!!!CNT: Brasil
!!!OCY: Brasil
!!!ODT: <1971///
!!!PSR: Irmaos Vitale
!!!PSP: Sao Paulo, Brasil
!!!PDT: 1949///
!!!PPE: Rossini Tavares de Lima
!!!PPG: page 16
!! Romance: Juliana E D. Jorge
!! Place: Bairro do Belem, Capital, Sao Paulo, Brasil
**kern
*clefG2
*k[b-e-a-]
*M3/4
*MM100
8g
8cc
=
4.g
8g
8f
8e-
=
4g
4c
8g
8cc
=
4.g
8g
8f
8e-
=
2g
8g
8g
=
4a-
4f
8e-
8d
=
4g
4e-
8g
8a-
=
4g
4f
8e-
8d
=
2c
==
*-
